Flat-Remix-Dark/apps/scalable/anatine.svg

<svg width="384pt" height="384pt" version="1.1" viewBox="0 0 384 384" xmlns="http://www.w3.org/2000/svg" xmlns:xlink="http://www.w3.org/1999/xlink">
 <defs>
  <filter id="alpha" x="0%" y="0%" width="100%" height="100%">
   <feColorMatrix in="SourceGraphic" values="0 0 0 0 1 0 0 0 0 1 0 0 0 0 1 0 0 0 1 0"/>
  </filter>
  <mask id="mask0">
   <g filter="url(#alpha)">
    <rect width="384" height="384" style="fill-opacity:.2;fill:rgb(0%,0%,0%)"/>
   </g>
  </mask>
  <clipPath id="clip1">
   <rect width="384" height="384"/>
  </clipPath>
  <g id="surface5" clip-path="url(#clip1)">
   <path d="m162.49219 24.035156c-13.507813 0.222656-27.109376 3.160156-37.09375 8.109375-9.898438 4.90625-18.738282 14.425781-27.078126 29.167969-2.140624 3.78125-4.636718 7.363281-5.554687 7.96875s-4.285156 1.453125-7.464844 1.882812c-11.070312-0.371093-23.210937-2.757812-34.96875-5.140624 0 0-7.496093-1.949219-8.332031 6.152343 0.035156 1.367188 0.257812 2.65625 0.46875 3.953125 1.8125-5.617187 7.863281-4.105468 7.863281-4.105468 11.757813 2.382812 23.898438 4.769531 34.96875 5.140624 3.179688-0.429687 6.546875-1.277343 7.464844-1.882812s3.414063-4.199219 5.554687-7.980469c8.339844-14.738281 17.179688-24.25 27.078126-29.15625 11.414062-5.65625 27.554687-8.683593 42.871093-8.039062 18.414063 0.777343 34.054688 7.144531 46.832031 19.066406 8.777344 8.195313 14.589844 10.25 22.941407 8.097656 2.28125-0.589843 3.175781-0.746093 4.058593-0.855469 1.191407-1.652343 1.953126-3.363281 1.953126-4.816406 0-1.84375-0.136719-1.84375-6.011719-0.328125-8.351563 2.152344-14.164063 0.097657-22.941407-8.097656-12.777343-11.921875-28.417968-18.289063-46.832031-19.066406-1.914062-0.082031-3.84375-0.101563-5.777343-0.070313zm77.929687 40.328125c-0.410156 0.402344-0.800781 0.816407-1.269531 1.191407l-2.726563 2.203124 0.855469 0.503907c0.253906-0.042969 0.460938-0.101563 0.726562-0.136719 3.835938-0.554688 4.546876-1.980469 2.414063-3.761719zm-8.214844 11.644531c-0.457031 0.335938-0.785156 0.683594-0.785156 1.019532 0 0.398437 0.542969 3.835937 1.203125 7.636718 0.582031 3.355469 0.792969 7.929688 0.835938 12.710938 0.238281-6.9375-0.007813-13.949219-0.835938-18.710938-0.226562-1.316406-0.234375-1.535156-0.417969-2.65625zm-170.49609 34.195313c-5.027344 3.300781-7.902344 8.210937-13.792969 12.808594-0.917969 1.726562-0.429688 3.367187 1.171875 4.921875 6.414062-5.457032 9.296875-11.167969 16.910156-13.921875-1.464844-1.246094-2.851562-2.539063-4.289062-3.808594zm256.28906 45.820313c-5.183594 0-8.507812 3.1875-14.089844 10.699218-6.519531 8.789063-15.25 15.429688-21.347656 18.539063-9.554688 4.871093-16.882812 4.003906-34.152344-4.042969-18.273437-8.519531-30.953125-11.582031-49.15625-13.195312-1.289062-0.113282-2.777344-0.066407-4.242187-0.082032-3.976563 2.703125-8.339844 5.644532-9.011719 6.070313 0.847656 0 8.28125-0.433594 13.253906 0.011719 18.203125 1.613281 30.882813 4.675781 49.15625 13.195312 17.269532 8.046875 24.597656 8.914062 34.152344 4.042969 6.097656-3.109375 14.828125-9.75 21.347656-18.539063 5.582032-7.511718 8.90625-10.699218 14.089844-10.699218 5.074219 0 8.71875 3.347656 12.5625 9.210937 5.445312 8.304687 8.414062 14.230469 10.527344 28.699219 0.597656 4.132812 0.8125 10.640625 0.824218 17.445312 0.195313-8.976562-0.046874-18.070312-0.824218-23.445312-2.113282-14.46875-5.082032-20.394532-10.527344-28.699219-3.84375-5.863281-7.488281-9.210937-12.5625-9.210937zm-216 3.371093c-0.253906 5.238281-1.375 10.058594-4.625 16.363281-3.75 7.273438-7.84375 13.054688-15.941406 21.960938-14.582032 16.054688-24.941406 33.121094-29.496094 48.597656-1.648438 5.597656-2.285156 11.917969-2.039062 18.570313 0.222656-4.449219 0.894531-8.679688 2.039062-12.570313 4.554688-15.476562 14.914062-32.542968 29.496094-48.597656 8.097656-8.90625 12.191406-14.6875 15.941406-21.960938 4.433594-8.605468 4.96875-14.449218 4.625-22.363281z" style="fill:rgb(100%,100%,100%)"/>
  </g>
  <mask id="mask1">
   <g filter="url(#alpha)">
    <rect width="384" height="384" style="fill-opacity:.2;fill:rgb(0%,0%,0%)"/>
   </g>
  </mask>
  <clipPath id="clip2">
   <rect width="384" height="384"/>
  </clipPath>
  <g id="surface8" clip-path="url(#clip2)">
   <path d="m243.25781 56.179688c-0.171874-0.011719-0.917968 0.210937-1.171874 0.246093-0.796876 1.09375-1.75 2.175781-2.929688 3.128907l-2.730469 2.203124 2.753907 1.640626c0.574218 0.339843 0.863281 0.640624 1.242187 0.960937 2.210937-2.1875 3.632813-4.71875 3.632813-6.761719 0-0.921875-0.027344-1.375-0.796876-1.417968zm-5.988281 12.082031c-3.363281 0.589843-5.847656 1.722656-5.847656 2.765625 0 0.257812 0.441406 2.878906 0.785156 4.980468 1.066407-0.785156 3.167969-1.507812 5.800781-1.886718 4.515626-0.652344 4.96875-2.46875 1.171876-4.722656zm-194.80078 7.859375c-0.199219 0.617187-0.386719 1.253906-0.46875 2.050781 0.355469 13.265625 9.480469 22.996094 19.710938 32.027344 1.269531-0.832031 2.652343-1.601563 4.289062-2.1875-10.800781-9.210938-21.386719-18.847657-23.53125-31.890625zm190.99219 21.246094c-0.230469 6.667968-0.914063 13.25-1.992188 17.625-3.410156 13.835937-8.582031 23.582031-17.402344 32.835937-6.867187 6.238281-26.257812 19.042969-28.070312 20.183594 0.632812 0 4.851562-0.136719 9.035156-0.082031 6.734375-4.582032 14.722656-10.179688 19.03125-14.097657 8.820312-9.25 13.996094-18.996093 17.402344-32.835937 1.414062-5.71875 2.066406-15.097656 1.992187-23.625zm-184.37109 30.574218c-0.414063 0.355469-0.71875 0.714844-1.171875 1.066406-1.417969 2.675782 0.214843 5.175782 4.804687 7.394532 5.921875 2.855468 11.992188 3.625 24.390625 3.035156 12.695313-0.609375 14.386719 1.269531 18.492188 4.664062 4.328125 3.601563 6.027343 7 6.394531 14.894532 0.007812 0.140625-0.003906 0.261718 0 0.398437 0.101562-2.035156 0.109375-4.132812 0-6.410156-0.367188-7.894531-2.066406-11.28125-6.394531-14.882813-4.105469-3.394531-5.796875-5.285156-18.492188-4.675781-12.398437 0.589844-18.46875-0.167969-24.390625-3.023437-1.621094-0.785156-2.753906-1.605469-3.632812-2.460938zm292.82422 89.4375c-0.175781 8.300782-0.71875 16.507813-1.617187 21.457032-11.171875 61.597656-50.480469 103.0625-110.49609 116.56641-16.195312 3.644531-22.71875 4.300781-45.160156 4.535156-11.644531 0.125-22.519531 0.085938-24.15625-0.082031v-0.011719c-37.652344-3.851562-63.890625-14.621094-83.273437-34.191406-7.828126-7.910156-13.144532-15.179688-17.5625-24.023438-5.847657-11.691406-9.1875-24.296875-9.75-35.90625-0.496094 13.167969 2.875 28.160156 9.75 41.90625 4.417968 8.84375 9.734374 16.117188 17.566406 24.023438 19.378906 19.570312 45.613281 30.355468 83.273437 34.207031 1.632813 0.167969 12.507813 0.203125 24.152344 0.082031 22.445313-0.234375 28.964844-0.890625 45.164063-4.535156 60.011718-13.5 99.324218-54.96875 110.49609-116.56641 1.121094-6.183594 1.640625-17.246094 1.617188-27.457032z" style="fill:rgb(0%,0%,0%)"/>
  </g>
  <linearGradient id="linearGradient1117" x1="-164.32207" x2="249.88222" y1="464.88773" y2="249.01659" gradientUnits="userSpaceOnUse">
   <stop style="stop-color:#4aaee6" offset="0"/>
   <stop style="stop-color:#357af0" offset="1"/>
  </linearGradient>
 </defs>
 <path d="m160.48828 359.85547c-37.664062-3.851563-63.886719-14.628907-83.269531-34.199219-7.835938-7.910156-13.152344-15.179688-17.570312-24.023438-9.359376-18.707031-12.289063-39.75-7.710938-55.316406 4.554688-15.476562 14.914062-32.542968 29.496094-48.597656 8.097656-8.902344 12.195312-14.6875 15.941406-21.957031 4.515625-8.761719 5.003906-14.628907 4.625-22.765625-0.371094-7.894532-2.0625-11.289063-6.394531-14.890625-4.101563-3.394531-5.796875-5.28125-18.496094-4.667969-12.394531 0.589844-18.472656-0.167969-24.394531-3.023438-4.589844-2.21875-6.21875-4.726562-4.796875-7.402343 7.382812-5.757813 9.96875-12.054688 18.082031-14.988281-11.871094-10.125-23.59375-20.71875-24-35.84375 0.835938-8.101563 8.332031-6.152344 8.332031-6.152344 11.753907 2.382812 23.902344 4.777344 34.972657 5.148437 3.183593-0.429687 6.539062-1.277343 7.457031-1.886719 0.917969-0.605468 3.421875-4.195312 5.5625-7.976562 8.34375-14.738281 17.179687-24.257812 27.082031-29.164062 11.40625-5.652344 27.546875-8.679688 42.863281-8.03125 18.417969 0.773437 34.058594 7.144531 46.832031 19.066406 8.78125 8.191406 14.59375 10.242187 22.945313 8.089844 5.875-1.515626 6.007813-1.507813 6.007813 0.335937 0 2.421875-1.933594 5.558594-4.898438 7.953125l-2.734375 2.207031 2.753906 1.636719c3.796875 2.253906 3.347657 4.066406-1.167969 4.714844-3.761718 0.542968-6.582031 1.789062-6.582031 2.914062 0 0.394532 0.539063 3.832032 1.199219 7.636719 1.621094 9.332031 1.042969 27.414063-1.15625 36.335937-3.410156 13.835938-8.582031 23.582032-17.402344 32.832032-6.863281 6.242187-26.253906 19.042968-28.066406 20.183594 0.851562 0 8.277344-0.433594 13.25 0.003906 18.203125 1.613281 30.878906 4.683594 49.160156 13.199218 17.265625 8.046876 24.601563 8.914063 34.15625 4.039063 6.097656-3.109375 14.824219-9.742187 21.347656-18.535156 5.578126-7.511719 8.902344-10.703125 14.085938-10.703125 5.078125 0 8.722656 3.347656 12.566406 9.210937 5.441406 8.304688 8.40625 14.234375 10.519532 28.699219 1.507812 10.339844 1.085937 34.605469-0.785157 44.914062-11.175781 61.59375-50.484375 103.05859-110.49609 116.56641-16.195313 3.644531-22.722657 4.300781-45.167969 4.535156-11.644531 0.121094-22.507813 0.082031-24.140625-0.085937z" style="fill:url(#linearGradient1117)"/>
 <use mask="url(#mask0)" xlink:href="#surface5"/>
 <use mask="url(#mask1)" xlink:href="#surface8"/>
</svg>

<svg xmlns="http://www.w3.org/2000/svg" xmlns:xlink="http://www.w3.org/1999/xlink" width="384pt" height="384pt" version="1.1" viewBox="0 0 384 384">
 <defs>
  <linearGradient id="linearGradient1115">
   <stop offset="0" style="stop-color:#4aaee6"/>
   <stop offset="1" style="stop-color:#357af0"/>
  </linearGradient>
  <filter id="alpha" width="100%" height="100%" x="0%" y="0%" filterUnits="objectBoundingBox">
   <feColorMatrix in="SourceGraphic" type="matrix" values="0 0 0 0 1 0 0 0 0 1 0 0 0 0 1 0 0 0 1 0"/>
  </filter>
  <mask id="mask0">
   <g filter="url(#alpha)">
    <rect style="fill:rgb(0%,0%,0%);fill-opacity:0.2" width="384" height="384" x="0" y="0"/>
   </g>
  </mask>
  <clipPath id="clip1">
   <rect width="384" height="384" x="0" y="0"/>
  </clipPath>
  <g id="surface5" clip-path="url(#clip1)">
   <path d="M 162.492188 24.035156 C 148.984375 24.257812 135.382812 27.195312 125.398438 32.144531 C 115.5 37.050781 106.660156 46.570312 98.320312 61.3125 C 96.179688 65.09375 93.683594 68.675781 92.765625 69.28125 C 91.847656 69.886719 88.480469 70.734375 85.300781 71.164062 C 74.230469 70.792969 62.089844 68.40625 50.332031 66.023438 C 50.332031 66.023438 42.835938 64.074219 42 72.175781 C 42.035156 73.542969 42.257812 74.832031 42.46875 76.128906 C 44.28125 70.511719 50.332031 72.023438 50.332031 72.023438 C 62.089844 74.40625 74.230469 76.792969 85.300781 77.164062 C 88.480469 76.734375 91.847656 75.886719 92.765625 75.28125 C 93.683594 74.675781 96.179688 71.082031 98.320312 67.300781 C 106.660156 52.5625 115.5 43.050781 125.398438 38.144531 C 136.8125 32.488281 152.953125 29.460938 168.269531 30.105469 C 186.683594 30.882812 202.324219 37.25 215.101562 49.171875 C 223.878906 57.367188 229.691406 59.421875 238.042969 57.269531 C 240.324219 56.679688 241.21875 56.523438 242.101562 56.414062 C 243.292969 54.761719 244.054688 53.050781 244.054688 51.597656 C 244.054688 49.753906 243.917969 49.753906 238.042969 51.269531 C 229.691406 53.421875 223.878906 51.367188 215.101562 43.171875 C 202.324219 31.25 186.683594 24.882812 168.269531 24.105469 C 166.355469 24.023438 164.425781 24.003906 162.492188 24.035156 Z M 240.421875 64.363281 C 240.011719 64.765625 239.621094 65.179688 239.152344 65.554688 L 236.425781 67.757812 L 237.28125 68.261719 C 237.535156 68.21875 237.742188 68.160156 238.007812 68.125 C 241.84375 67.570312 242.554688 66.144531 240.421875 64.363281 Z M 232.207031 76.007812 C 231.75 76.34375 231.421875 76.691406 231.421875 77.027344 C 231.421875 77.425781 231.964844 80.863281 232.625 84.664062 C 233.207031 88.019531 233.417969 92.59375 233.460938 97.375 C 233.699219 90.4375 233.453125 83.425781 232.625 78.664062 C 232.398438 77.347656 232.390625 77.128906 232.207031 76.007812 Z M 61.710938 110.203125 C 56.683594 113.503906 53.808594 118.414062 47.917969 123.011719 C 47 124.738281 47.488281 126.378906 49.089844 127.933594 C 55.503906 122.476562 58.386719 116.765625 66 114.011719 C 64.535156 112.765625 63.148438 111.472656 61.710938 110.203125 Z M 318 156.023438 C 312.816406 156.023438 309.492188 159.210938 303.910156 166.722656 C 297.390625 175.511719 288.660156 182.152344 282.5625 185.261719 C 273.007812 190.132812 265.679688 189.265625 248.410156 181.21875 C 230.136719 172.699219 217.457031 169.636719 199.253906 168.023438 C 197.964844 167.910156 196.476562 167.957031 195.011719 167.941406 C 191.035156 170.644531 186.671875 173.585938 186 174.011719 C 186.847656 174.011719 194.28125 173.578125 199.253906 174.023438 C 217.457031 175.636719 230.136719 178.699219 248.410156 187.21875 C 265.679688 195.265625 273.007812 196.132812 282.5625 191.261719 C 288.660156 188.152344 297.390625 181.511719 303.910156 172.722656 C 309.492188 165.210938 312.816406 162.023438 318 162.023438 C 323.074219 162.023438 326.71875 165.371094 330.5625 171.234375 C 336.007812 179.539062 338.976562 185.464844 341.089844 199.933594 C 341.6875 204.066406 341.902344 210.574219 341.914062 217.378906 C 342.109375 208.402344 341.867188 199.308594 341.089844 193.933594 C 338.976562 179.464844 336.007812 173.539062 330.5625 165.234375 C 326.71875 159.371094 323.074219 156.023438 318 156.023438 Z M 102 159.394531 C 101.746094 164.632812 100.625 169.453125 97.375 175.757812 C 93.625 183.03125 89.53125 188.8125 81.433594 197.71875 C 66.851562 213.773438 56.492188 230.839844 51.9375 246.316406 C 50.289062 251.914062 49.652344 258.234375 49.898438 264.886719 C 50.121094 260.4375 50.792969 256.207031 51.9375 252.316406 C 56.492188 236.839844 66.851562 219.773438 81.433594 203.71875 C 89.53125 194.8125 93.625 189.03125 97.375 181.757812 C 101.808594 173.152344 102.34375 167.308594 102 159.394531 Z M 102 159.394531" style="fill:rgb(100%,100%,100%)"/>
  </g>
  <mask id="mask1">
   <g filter="url(#alpha)">
    <rect style="fill:rgb(0%,0%,0%);fill-opacity:0.2" width="384" height="384" x="0" y="0"/>
   </g>
  </mask>
  <clipPath id="clip2">
   <rect width="384" height="384" x="0" y="0"/>
  </clipPath>
  <g id="surface8" clip-path="url(#clip2)">
   <path d="M 243.257812 56.179688 C 243.085938 56.167969 242.339844 56.390625 242.085938 56.425781 C 241.289062 57.519531 240.335938 58.601562 239.15625 59.554688 L 236.425781 61.757812 L 239.179688 63.398438 C 239.753906 63.738281 240.042969 64.039062 240.421875 64.359375 C 242.632812 62.171875 244.054688 59.640625 244.054688 57.597656 C 244.054688 56.675781 244.027344 56.222656 243.257812 56.179688 Z M 237.269531 68.261719 C 233.90625 68.851562 231.421875 69.984375 231.421875 71.027344 C 231.421875 71.285156 231.863281 73.90625 232.207031 76.007812 C 233.273438 75.222656 235.375 74.5 238.007812 74.121094 C 242.523438 73.46875 242.976562 71.652344 239.179688 69.398438 Z M 42.46875 76.121094 C 42.269531 76.738281 42.082031 77.375 42 78.171875 C 42.355469 91.4375 51.480469 101.167969 61.710938 110.199219 C 62.980469 109.367188 64.363281 108.597656 66 108.011719 C 55.199219 98.800781 44.613281 89.164062 42.46875 76.121094 Z M 233.460938 97.367188 C 233.230469 104.035156 232.546875 110.617188 231.46875 114.992188 C 228.058594 128.828125 222.886719 138.574219 214.066406 147.828125 C 207.199219 154.066406 187.808594 166.871094 185.996094 168.011719 C 186.628906 168.011719 190.847656 167.875 195.03125 167.929688 C 201.765625 163.347656 209.753906 157.75 214.0625 153.832031 C 222.882812 144.582031 228.058594 134.835938 231.464844 120.996094 C 232.878906 115.277344 233.53125 105.898438 233.457031 97.371094 Z M 49.089844 127.941406 C 48.675781 128.296875 48.371094 128.65625 47.917969 129.007812 C 46.5 131.683594 48.132812 134.183594 52.722656 136.402344 C 58.644531 139.257812 64.714844 140.027344 77.113281 139.4375 C 89.808594 138.828125 91.5 140.707031 95.605469 144.101562 C 99.933594 147.703125 101.632812 151.101562 102 158.996094 C 102.007812 159.136719 101.996094 159.257812 102 159.394531 C 102.101562 157.359375 102.109375 155.261719 102 152.984375 C 101.632812 145.089844 99.933594 141.703125 95.605469 138.101562 C 91.5 134.707031 89.808594 132.816406 77.113281 133.425781 C 64.714844 134.015625 58.644531 133.257812 52.722656 130.402344 C 51.101562 129.617188 49.96875 128.796875 49.089844 127.941406 Z M 341.914062 217.378906 C 341.738281 225.679688 341.195312 233.886719 340.296875 238.835938 C 329.125 300.433594 289.816406 341.898438 229.800781 355.402344 C 213.605469 359.046875 207.082031 359.703125 184.640625 359.9375 C 172.996094 360.0625 162.121094 360.023438 160.484375 359.855469 L 160.484375 359.84375 C 122.832031 355.992188 96.59375 345.222656 77.210938 325.652344 C 69.382812 317.742188 64.066406 310.472656 59.648438 301.628906 C 53.800781 289.9375 50.460938 277.332031 49.898438 265.722656 C 49.402344 278.890625 52.773438 293.882812 59.648438 307.628906 C 64.066406 316.472656 69.382812 323.746094 77.214844 331.652344 C 96.59375 351.222656 122.828125 362.007812 160.488281 365.859375 C 162.121094 366.027344 172.996094 366.0625 184.640625 365.941406 C 207.085938 365.707031 213.605469 365.050781 229.804688 361.40625 C 289.816406 347.90625 329.128906 306.4375 340.300781 244.839844 C 341.421875 238.65625 341.941406 227.59375 341.917969 217.382812 Z M 341.914062 217.378906" style="fill:rgb(0%,0%,0%)"/>
  </g>
  <linearGradient id="linearGradient1117" x1="157.831" x2="318.915" y1="292.881" y2="209.898" gradientUnits="userSpaceOnUse" xlink:href="#linearGradient1115"/>
 </defs>
 <g>
  <path d="M 160.488281 359.855469 C 122.824219 356.003906 96.601562 345.226562 77.21875 325.65625 C 69.382812 317.746094 64.066406 310.476562 59.648438 301.632812 C 50.289062 282.925781 47.359375 261.882812 51.9375 246.316406 C 56.492188 230.839844 66.851562 213.773438 81.433594 197.71875 C 89.53125 188.816406 93.628906 183.03125 97.375 175.761719 C 101.890625 167 102.378906 161.132812 102 152.996094 C 101.628906 145.101562 99.9375 141.707031 95.605469 138.105469 C 91.503906 134.710938 89.808594 132.824219 77.109375 133.4375 C 64.714844 134.027344 58.636719 133.269531 52.714844 130.414062 C 48.125 128.195312 46.496094 125.6875 47.917969 123.011719 C 55.300781 117.253906 57.886719 110.957031 66 108.023438 C 54.128906 97.898438 42.40625 87.304688 42 72.179688 C 42.835938 64.078125 50.332031 66.027344 50.332031 66.027344 C 62.085938 68.410156 74.234375 70.804688 85.304688 71.175781 C 88.488281 70.746094 91.84375 69.898438 92.761719 69.289062 C 93.679688 68.683594 96.183594 65.09375 98.324219 61.3125 C 106.667969 46.574219 115.503906 37.054688 125.40625 32.148438 C 136.8125 26.496094 152.953125 23.46875 168.269531 24.117188 C 186.6875 24.890625 202.328125 31.261719 215.101562 43.183594 C 223.882812 51.375 229.695312 53.425781 238.046875 51.273438 C 243.921875 49.757812 244.054688 49.765625 244.054688 51.609375 C 244.054688 54.03125 242.121094 57.167969 239.15625 59.5625 L 236.421875 61.769531 L 239.175781 63.40625 C 242.972656 65.660156 242.523438 67.472656 238.007812 68.121094 C 234.246094 68.664062 231.425781 69.910156 231.425781 71.035156 C 231.425781 71.429688 231.964844 74.867188 232.625 78.671875 C 234.246094 88.003906 233.667969 106.085938 231.46875 115.007812 C 228.058594 128.84375 222.886719 138.589844 214.066406 147.839844 C 207.203125 154.082031 187.8125 166.882812 186 168.023438 C 186.851562 168.023438 194.277344 167.589844 199.25 168.027344 C 217.453125 169.640625 230.128906 172.710938 248.410156 181.226562 C 265.675781 189.273438 273.011719 190.140625 282.566406 185.265625 C 288.664062 182.15625 297.390625 175.523438 303.914062 166.730469 C 309.492188 159.21875 312.816406 156.027344 318 156.027344 C 323.078125 156.027344 326.722656 159.375 330.566406 165.238281 C 336.007812 173.542969 338.972656 179.472656 341.085938 193.9375 C 342.59375 204.277344 342.171875 228.542969 340.300781 238.851562 C 329.125 300.445312 289.816406 341.910156 229.804688 355.417969 C 213.609375 359.0625 207.082031 359.71875 184.636719 359.953125 C 172.992188 360.074219 162.128906 360.035156 160.496094 359.867188 Z M 160.488281 359.855469" style="fill:url(#linearGradient1117)"/>
  <use mask="url(#mask0)" xlink:href="#surface5"/>
  <use mask="url(#mask1)" xlink:href="#surface8"/>
 </g>
</svg>
